!!!COM: Emmanuel Chabrier
!!!CNT: Francais
!!!TXO: Francais
!!!OTL: "Lied"
!!!LYR: Mende\s
!!!OPR: 
!!!OPS: 
!!!ONM: 
!!!ENC: Emily Thomas
!!!YOR: CD Sheet Music French Art Songs, The Ultimate Collection
!!!YOR: CD Sheet Music, LLC 2003
!!!ODT: 1862/
!!NB: Vocal melody and text encoded.
**kern	**silbe
=0	=0
*clefG2	*
*k[b-]	*
*M6/8	*
*MM[Con moto]	*
2.r	.
=2	=2
2.r	.
=3	=3
2.r	.
=4	=4
2.r	.
=5	=5
2.r	.
=6	=6
2.r	.
=7	=7
2.r	.
=8	=8
2.r	.
=9	=9
{[4.cc	{Nez
8cc]	|
8r	.
8e	au
=10	=10
4f}	vent,}
8r	.
4r	.
8r	.
=11	=11
{[4.dd	Coeur
4dd]	|
8e	plein
=12	=12
4.f	d'ai
4f}	se,}
8r	.
=13	=13
{[4.ee	{Ber-
4ee]	-the
8dd	em-
=14	=14
4.cc	-plit,
4f	fraise
8f	a\
=15	=15
4.e	frai-
4.d	|
=16	=16
4c}	-se,}
8r	.
{4a	{Dans
8cc	le
=17	=17
4.f	bois
4ee	prin-
8d	-ta-
=18	=18
4.cc}	-nier,}
{4e	{Son
8e-	|
=19	=19
4.d	frais
4.en	pa-
=20	=20
[2.f	-nier.
=21	=21
4.f_	|
8f]}	|}
8r	.
8r	.
=22	=22
4r	.
8r	.
{4a	{Les
8ee	de/-
=23	=23
4.cc	-es-
4a	-ses
8e	de
=24	=24
4f	mar-
8g	-bre
4a	La
8ee	re-
=25	=25
4.cc	-gar-
4a	-dent
8e	sous
=26	=26
4f	l'ar-
8g	|
8f}	-bre}
8r	.
8r	.
=27	=27
4r	.
{8g	{D'un
4a	air
8bn	plein
=28	=28
4cc	de
8dd	dou-
4ee	-ceur,
8e	Comme
=29	=29
4.cc#	u0
4.bn	-ne
=30	=30
[4.b	soeur,
8bn]}	|}
8r	.
{8dn	{Et,
=31	=31
4d	dans
8d	de
4d	fol-
8d	-les
=32	=32
4.d	ri-
8d}	-xes,}
8r	.
8r	.
=33	=33
{8d	{Pas-
8d	-se
8d	l'ess-
4d	-aim
8d	des
=34	=34
4d	Ni-
8d	-xes
4g	Et
8g	des
=35	=35
4.b-	El-
4dd	-fes
8dd	ba-
=36	=36
4.ff}	-dins}
{4.f	{Et
=37	=37
4.dd	des
4.cc	On-
=38	=38
2.f}	-dins.}
=39	=39
2.r	.
=40	=40
2.r	.
=41	=41
2.r	.
=42	=42
2.r	.
=43	=43
2.r	.
=44	=44
2.r	.
=45	=45
2.r	.
=46	=46
2.r	.
=47	=47
*M2/4	*
2r	.
=48	=48
8r	.
{8cc	{Un
[4cc	El-
=49	=49
8cc]	|
8cc	-fe
8cc	dit
8cc	a\
=50	=50
4a	Ser-
4f}	-the:}
=51	=51
4r	.
{4cc	{"La\-
=52	=52
8ff	-bas,
8cc	sous
8a	l'om-
8f	-bre
=53	=53
4e	ver-
4d	|
=54	=54
4.c}	-te,}
{8a	{Il
=55	=55
8g	est,
8f	dans
8ee	les
8dd	sen-
=56	=56
[8cc	-tiers,
16cc]	|
16r	.
8e	De
8e-	|
=57	=57
4d	beaux
4en	frai-
=58	=58
[2f	-siers."
=59	=59
4f_	|
8f]}	|}
8r	.
=60	=60
*M6/8	*
4r	.
8r	.
4r	.
{8a	{Un
=61	=61
4ee	Elfe
8cc	a\
4a	la
8e	mous-
=62	=62
4f	-ta-
8g	|
4f	-che
8a	Tre\s
=63	=63
8ee	fine
8eeq}	|}
8r	.
{8cc	{et
4a	l'air
8e	bra-
=64	=64
4f	-va-
8aq	|
8g	|
4f	-che
8e	D'un
=65	=65
4f	rei-
8g	|
4a	-tre
8bn	ou
=66	=66
4cc	d'un
8dd	var-
4ee}	-let,}
{8e	{Quand
=67	=67
4.cc#	il
4.bn	lui
=68	=68
[4.bn	plait.
8bn]}	|}
8r	.
8r	.
=69	=69
4r	.
{8d	{Con-
4d	-dui-
8d	-sez-
=70	=70
4d	-moi,
8d	dit
4d	Ber-
8d}	-the,}
=71	=71
4r	.
{8d	{La\-
4.d	-bas,
=72	=72
8d	sous
8d	l'om-
8d	-bre
4d	ver-
8d}	-te,}
=73	=73
4r	.
{8dd	{Ou\
4ee	sont,
8dd	dans
=74	=74
4bn	les
8cc	sen-
8ff}	-tiers,}
8r	.
{8f	{les
=75	=75
4.dd	beaux
4.cc	frai-
=76	=76
2.f}	-siers!"}
=77	=77
2.r	.
=78	=78
2.r	.
=79	=79
2.r	.
=80	=80
2.r	.
=81	=81
2.r	.
=82	=82
2.r	.
=83	=83
2.r	.
=84	=84
2.r	.
=85	=85
2.r	.
=86	=86
4r	.
8r	.
{[4.dd	{Les-
=87	=87
4dd]	|
8e	-te
8e	com-
8e	-me
8e	une
=88	=88
4.f	che\-
4f}	-vre,}
8r	.
=89	=89
{4.b-	{Ber-
4b-	-the
8b-	cou-
=90	=90
[4.a	-rait.
8a]}	|}
8r	.
{8f	{"Ta
=91	=91
4.e	le\-
4.d	|
=92	=92
*M2/4	*
4.c}	-vre}
{8a	{Est
=93	=93
8g	un
8f	frai-
8ee	-sier
8dd	char-
=94	=94
[8cc	-mant,"
16cc]	|
16r	.
8e	Re-
8e-	|
=95	=95
4d	-prit
4en	l'a-
=96	=96
[2f	-mant.
=97	=97
4f_	|
8f]}	|}
8r	.
=98	=98
4r	.
{8a	{"Le
8ee	bai-
=99	=99
4cc	-ser,
8a	frai-
8e	-se
=100	=100
8f	ro-
8g	|
8a}	-se,}
{8ee	{Donne,
=101	=101
8cc	a\
8bn	la
8a	bouche
8e	e/-
=102	=102
8f	-clo-
8aq	|
8g	|
4f}	-se}
=103	=103
8r	.
{8g	{Qui
8a	le
8bn	lais-
=104	=104
8cc	-se
8dd	sai-
8ee	-sir,
8e	Un
=105	=105
4cc#	doux
4bn	plai-
=106	=106
2bn}	-sir!"}
=107	=107
*M6/8		*
4r	.
{8d	{S'il
4d	est
8d	ain-
=108	=108
4d	-si,
8d	dit
4d	Ber-
8d}	-the,}
=109	=109
4r	.
{8d	{Lais-
4d	-sons
8d	sous
=110	=110
4d	l'om-
8d	-bre
4d	ver-
8d}	-te}
=111	=111
4r	.
{8b-	{En
4ee	paix,
8dd	dans
=112	=112
4bn	les
8cc	sen-
8a}	-tiers,}
8r	.
{8f	{Les
=113	=113
4.dd	beaux
4.cc	frai-
=114	=114
[2.f	-siers!"
=115	=115
2.f]}	|}
==	==
*-	*-
